X: 1
T: The Leitrim Fancy
M: 6/8
L: 1/8
K: Dmaj
"G"GBG "D"FAF|"Em"E2 B BAB|"G"GBG FAF|"D7"DFA AFD|
"G"GBG "D"FAF|"Em"E2 B BAB|"G"GAB dBG|"D7"ABG FED:|]
"G"GAB d3 d|"Bm"edB dBA|"G"GAB dBG|"D7"ABG FED|
"G"GAB d3 d|"Em"edB def|"Bm"gfe dBG|"D7"ABG FED:|]



